!!!!SEGMENT: pl-cz--iii-319--005_just-franciszek-kasper--missa-in-g-osanna.krn
!!!cenid: 17xx:905
!!!COM: Just, Franciszek Kasper
!!!COM-rismID:
!!!CDT: 1717-1760
!!!CNT: Czech
!!!OPR: Missa in G
!!!OTL: Osanna
!!!OMV: 005
!!!PDT: 1755
!!!AGN: Sacred; Mass
!!!SMS-siglum: PL-CZ
!!!SMS-shelfmark: III-319
!!!SMS-shelfwork: 001-005 M
!!!SMS-variant: Organo: PL-CZ III-319:29
!!!SMS-altvar: Organo: PL-CZ III-319:31
!!!NIFC-rismSourceID: 300000544
!!!NIFC-islandoraID: pl-cz:37529
!!!URL-pdf-islandora: https://repozytorium.nifc.pl/islandora/object/pl-cz%3A37529/datastream/PDF/view
!!!URL-scan:
!!!ONB-nifc: UWAGA: części Mszy: Kyrie, Gloria, Patrem, Sanctus, Osanna
!!!OMD: Allegro
!!!AIN: 1 alto 1 bass 2 cor 1 organ 1 soprn 1 tenor 1 viola 2 violn
!!!key: G
**kern	**kern	**kern	**kern	**kern	**text	**kern	**text	**kern	**text	**kern	**text	**kern	**kern
*part10	*part9	*part8	*part7	*part6	*part6	*part5	*part5	*part4	*part4	*part3	*part3	*part2	*part1
*staff10	*staff9	*staff8	*staff7	*staff6	*staff6	*staff5	*staff5	*staff4	*staff4	*staff3	*staff3	*staff2	*staff1
*I"Organo	*I"Alto Viola	*I"Violino Secundo	*I"Violino Primo	*I"Baſso.	*	*I"Tenore.	*	*I"Alto.	*	*I"Canto.	*	*I"Corno Secundo ex G.	*I"Corno Primo ex G.
*I'org (=bc)	*I'vla	*I'vl 2	*I'vl 1	*I'B	*	*I'T	*	*I'A	*	*I'S	*	*I'cor 2 in G	*I'cor 1 in G
*Iorgan	*Iviola	*Ivioln	*Ivioln	*Ibass	*	*Itenor	*	*Ialto	*	*Isoprn	*	*Icor	*Icor
*ICklav	*ICstr	*ICstr	*ICstr	*ICvox	*	*ICvox	*	*ICvox	*	*ICvox	*	*ICbras	*ICbras
*clefF4	*clefC3	*clefG2	*clefG2	*clefF4	*	*clefC4	*	*clefC3	*	*clefC1	*	*clefG2	*clefG2
*	*	*	*	*	*	*	*	*	*	*	*	*ITrd3c5	*ITrd3c5
*k[f#]	*k[f#]	*k[f#]	*k[f#]	*k[f#]	*	*k[f#]	*	*k[f#]	*	*k[f#]	*	*k[f#]	*k[f#]
*G:	*G:	*G:	*G:	*G:	*	*G:	*	*G:	*	*G:	*	*	*
*M3/4	*M3/4	*M3/4	*M3/4	*M3/4	*	*M3/4	*	*M3/4	*	*M3/4	*	*M3/4	*M3/4
*	*	*	*	*all\right	*	*all\right	*	*all\right	*	*all\right	*	*	*
=1	=1	=1	=1	=1	=1	=1	=1	=1	=1	=1	=1	=1	=1
!!LO:TX:t=P:problem:takty 69-100 notoryczny brak kasowników przy fis we wszystkich głosach
*^	*	*	*	*	*	*	*	*	*	*	*	*	*
!LO:TX:b:i:t=Allegro	!	!	!	!	!	!	!	!	!	!	!LO:TX:t=P:problem=przed kluczem inicjał "O" 	!	!	!
!	!	!LO:TX:t=P:problem=partia alto viola zdekompletowana	!	!	!	!	!	!	!LO:TX:t=P:problem=przed kluczem inicjał "O" 	!	!	!	!	!LO:TX:a:B:t=Allegro
!	!	!	!	!	!LO:TX:t=P:problem=przed kluczem inicjał "O"	!	!	!	!	!	!	!	!	!
2.G/	2.GG/	2.ryy	0.r	0.r	0.r	.	0.r	.	4g\	O-	4g\	O-	0.r	0.r
.	.	.	.	.	.	.	.	.	4g\	-ſan-	4b\	-ſan-	.	.
.	.	.	.	.	.	.	.	.	4a\	-na	4cc\	-na	.	.
=2	=2	=2	=2	=2	=2	=2	=2	=2	=2	=2	=2	=2	=2	=2
*	*	*	*	*	*	*	*	*	*2\right	*	*2\right	*	*	*
2.G/	2.GG/	2.ryy	.	.	.	.	.	.	2b\	in	2dd\	in	.	.
.	.	.	.	.	.	.	.	.	4cc\	ex-	4ee\	ex-	.	.
=3	=3	=3	=3	=3	=3	=3	=3	=3	=3	=3	=3	=3	=3	=3
2.G/	2.GG/	2.ryy	.	.	.	.	.	.	4.b\	-cel-	4.dd\	-cel-	.	.
.	.	.	.	.	.	.	.	.	8a\L	.	8cc\L	.	.	.
.	.	.	.	.	.	.	.	.	8g\	.	8b\	.	.	.
.	.	.	.	.	.	.	.	.	8a\J	.	8cc\J	.	.	.
=4	=4	=4	=4	=4	=4	=4	=4	=4	=4	=4	=4	=4	=4	=4
2.G/	2.GG/	2.ryy	.	.	.	.	.	.	2.b\	-sis	2.dd\	-sis	.	.
=5	=5	=5	=5	=5	=5	=5	=5	=5	=5	=5	=5	=5	=5	=5
2.G/	2.GG/	2.ryy	0.r	0.r	0.r	.	0.r	.	4d\	O-	4g\	O-	0.r	0.r
.	.	.	.	.	.	.	.	.	4g\	-ſan-	4b\	-ſan-	.	.
.	.	.	.	.	.	.	.	.	4a\	-na	4cc\	-na	.	.
=6	=6	=6	=6	=6	=6	=6	=6	=6	=6	=6	=6	=6	=6	=6
2.G/	2.GG/	2.ryy	.	.	.	.	.	.	2b\	in	2dd\	in	.	.
.	.	.	.	.	.	.	.	.	4cc\	ex-	4ee\	ex-	.	.
=7	=7	=7	=7	=7	=7	=7	=7	=7	=7	=7	=7	=7	=7	=7
2.G/	2.GG/	2.ryy	.	.	.	.	.	.	4.b\	-Cel-	4.dd\	-cael-	.	.
.	.	.	.	.	.	.	.	.	8a\L	.	8cc\L	.	.	.
.	.	.	.	.	.	.	.	.	8g\	.	8b\	.	.	.
.	.	.	.	.	.	.	.	.	8d\J	.	8a\J	.	.	.
=8	=8	=8	=8	=8	=8	=8	=8	=8	=8	=8	=8	=8	=8	=8
2.G/	2.GG/	2.ryy	.	.	.	.	.	.	2.B/	-sis	2.g/	-ſis	.	.
=9	=9	=9	=9	=9	=9	=9	=9	=9	=9	=9	=9	=9	=9	=9
!	!	!	!	!	! 	!	!LO:TX:t=P:problem=przed kluczem inicjał "O" 	!	!	!	!	!	!	!
2.G/	2.GG/	2.ryy	0.r	0.r	4G\	O-	4G/	O-	2.B/	in	2.g/	.	0.r	0.r
.	.	.	.	.	4G\	-ſan-	4B/	-ſan-	.	.	.	.	.	.
.	.	.	.	.	4A\	-na	4c\	-na	.	.	.	.	.	.
=10	=10	=10	=10	=10	=10	=10	=10	=10	=10	=10	=10	=10	=10	=10
*	*	*	*	*	*2\right	*	*2\right	*	*	*	*	*	*	*
2.G/	2.GG/	2.ryy	.	.	2B\	in	2d\	in	2.B/	ex-	2.g/	.	.	.
.	.	.	.	.	4c\	ex-	4e\	ex-	.	.	.	.	.	.
=11	=11	=11	=11	=11	=11	=11	=11	=11	=11	=11	=11	=11	=11	=11
2.G/	2.GG/	2.ryy	.	.	4.B\	-cel-	4.d\	-cel-	2.B/	-cel-	2.g/	.	.	.
.	.	.	.	.	8A\L	.	8c\L	.	.	.	.	.	.	.
.	.	.	.	.	8G\	.	8B\	.	.	.	.	.	.	.
.	.	.	.	.	8A\J	.	8c\J	.	.	.	.	.	.	.
=12	=12	=12	=12	=12	=12	=12	=12	=12	=12	=12	=12	=12	=12	=12
2.G/	2.GG/	2.ryy	.	.	2.B\	-sis	2.d\	-sis	2.B/	.	2.g/	.	.	.
!LO:LB:g=original	!LO:LB:g=original	!	!	!	!	!	!	!	!LO:LB:g=original	!	!LO:PB:g=original	!	!	!
=13	=13	=13	=13	=13	=13	=13	=13	=13	=13	=13	=13	=13	=13	=13
*	*	*	*	*	*	*	*	*ij	*	*	*	*	*	*
2.G/	2.GG/	2.ryy	1.r	1.r	4D\	O-	4G/	O-	2.B/	.	2.g/	.	1.r	1.r
.	.	.	.	.	4G\	-ſan-	4B\	-ſan-	.	.	.	.	.	.
.	.	.	.	.	4A\	-na	4c\	-na	.	.	.	.	.	.
=14	=14	=14	=14	=14	=14	=14	=14	=14	=14	=14	=14	=14	=14	=14
2.G/	2.GG/	2.ryy	.	.	2B\	in	2d\	in	2.B/	.	2.g/	.	.	.
.	.	.	.	.	4c\	ex-	4e\	ex-	.	.	.	.	.	.
=15	=15	=15	=15	=15	=15	=15	=15	=15	=15	=15	=15	=15	=15	=15
!	!	!	!LO:TX:b:t=Z. S.	!LO:TX:b:t=Z. S.	!	!	!	!	!	!	!	!	!	!
2.G/	2.GG/	2.ryy	2.r	2.r	4.B\	-cel-	4.d\	-cel-	2.B/	.	2.g/	.	2.r	2.r
.	.	.	.	.	8A\L	.	8c\L	.	.	.	.	.	.	.
.	.	.	.	.	8G\	.	8B\	.	.	.	.	.	.	.
.	.	.	.	.	8D\J	.	8A\J	.	.	.	.	.	.	.
!	!	!	!LO:PB:g=original	!LO:PB:g=original	!	!	!	!	!	!	!	!	!	!
=16	=16	=16	=16	=16	=16	=16	=16	=16	=16	=16	=16	=16	=16	=16
2.G/	2.GG/	2.ryy	4r	4r	2.BB/	-sis	2.G/	-sis	2.B/	.	2.g/	.	4r	4r
*	*	*	*	*	*	*	*	*Xij	*	*	*	*	*	*
.	.	.	4r	4r	.	.	.	.	.	.	.	.	4r	4r
.	.	.	4dd\	4dd\	.	.	.	.	.	.	.	.	4d/	4dd\
=17	=17	=17	=17	=17	=17	=17	=17	=17	=17	=17	=17	=17	=17	=17
!	!	!	!	!	!	!	!LO:TX:t=4.	!	!	!	!	!	!	!
2.G/	2.GG/	2.ryy	4b\	4gg\	2.GG/	ex-	0.d\	O-	2.B/	.	2.g/	.	4g\	4b\
.	.	.	4b\	4gg\	.	.	.	.	.	.	.	.	4g\	4b\
.	.	.	4cc\	4aa\	.	.	.	.	.	.	.	.	4a\	4cc\
!	!	!	!	!	!LO:LB:g=original	!	!	!	!	!	!	!	!	!
=18	=18	=18	=18	=18	=18	=18	=18	=18	=18	=18	=18	=18	=18	=18
2.G/	2.GG/	2.ryy	4dd\	4bb\	2.GG/	-cel-	.	.	2.B/	.	2.g/	.	4b\	4dd\
.	.	.	4dd\	4bb\	.	.	.	.	.	.	.	.	4b\	4dd\
.	.	.	4b\	4dd\	.	.	.	.	.	.	.	.	4d/	4b\
=19	=19	=19	=19	=19	=19	=19	=19	=19	=19	=19	=19	=19	=19	=19
2.G/	2.GG/	2.ryy	4cc\	4ee\	2.GG/	.	.	.	2.B/	.	2.g/	.	4a\	4cc\
.	.	.	4cc\	4ee\	.	.	.	.	.	.	.	.	4a\	4cc\
.	.	.	4a\	4ff#\	.	.	.	.	.	.	.	.	4d/	4a\
=20	=20	=20	=20	=20	=20	=20	=20	=20	=20	=20	=20	=20	=20	=20
*	*	*	*	*2\right	*	*	*	*	*	*	*	*	*2\right	*2\right
2.G/	2.GG/	2.ryy	2b/	2gg\	2GG/	.	.	.	2B/	.	2.g/	.	2.g\	2b\
.	.	.	4dd\	4dd\	4ryy	.	.	.	4ryy	.	.	.	.	4a\
=21	=21	=21	=21	=21	=21	=21	=21	=21	=21	=21	=21	=21	=21	=21
!	!	!	!	!	!	!	!	!	!	!	!	!	!LO:TX:t=P:problem=takty 21-24 zapisane powtórką	!
2.G/	2.GG/	2.ryy	4b\	4gg\	2.GG/	.	2.d\	-ſan-	2.B/	.	2.g/	.	4g\	4b\
.	.	.	4b\	4gg\	.	.	.	.	.	.	.	.	4g\	4b\
.	.	.	4cc\	4aa\	.	.	.	.	.	.	.	.	4a\	4cc\
=22	=22	=22	=22	=22	=22	=22	=22	=22	=22	=22	=22	=22	=22	=22
2.G/	2.GG/	2.ryy	4dd\	4bb\	2.GG/	.	2.d\	.	2.B/	.	2.g/	.	4b\	4dd\
.	.	.	4dd\	4bb\	.	.	.	.	.	.	.	.	4b\	4dd\
.	.	.	4b\	4dd\	.	.	.	.	.	.	.	.	4d/	4b\
=23	=23	=23	=23	=23	=23	=23	=23	=23	=23	=23	=23	=23	=23	=23
2.G/	2.GG/	2.ryy	4cc\	4ee\	2.GG/	.	2.d\	.	2.B/	.	2.g/	.	4a\	4cc\
.	.	.	4cc\	4ee\	.	.	.	.	.	.	.	.	4a\	4cc\
.	.	.	4a/	4ff#\	.	.	.	.	.	.	.	.	4d/	4a\
!	!	!	!	!	!	!	!	!	!	!	!	!	!	!LO:LB:g=original
=24	=24	=24	=24	=24	=24	=24	=24	=24	=24	=24	=24	=24	=24	=24
*	*	*	*^	*^	*	*	*	*	*	*	*	*	*	*
*	*	*	*	*2\right	*	*	*	*	*	*	*	*	*	*	*	*
!	!	!	!	!	!	!	!	!	!	!	!	!	!	!	!LO:TX:a:t=vi	!
2.G/	2.GG/	2.ryy	2.b/	2.d\	2.gg/	2.b\	2GG/	-sis	2d\	-na	2B/	-sis,	2g/	.	2.g\	2.b\
.	.	.	.	.	.	.	4D\	O-	4D/	O-	4d\	O-	4d/	-O-	.	.
=25	=25	=25	=25	=25	=25	=25	=25	=25	=25	=25	=25	=25	=25	=25	=25	=25
!	!	!	!	!	!	!	!	!	!	!	!	!	!	!	!LO:TX:t=P:problem=takty 25-26 pominięte, zapisane na końcu partii z odsyłaczami vide-retro	!
!	!	!	!	!	!	!	!	!	!	!	!	!	!	!	!LO:TX:a:t=de	!
2.G/	2.GG/	2.ryy	2.b/	2.d\	2.gg/	2.b\	4G\	-ſan-	4G/	-ſan-	4g\	-ſan-	4g\	-ſan-	2.g\	2.b\
.	.	.	.	.	.	.	4G,<\	-na,	4G/	-na	4g\	-na	4g\	-na	.	.
*	*	*	*	*	*	*	*	*ij	*	*	*	*ij	*	*	*	*
.	.	.	.	.	.	.	4A\	O-	4A/	O-	4a\	O-	4a\	O-	.	.
=26	=26	=26	=26	=26	=26	=26	=26	=26	=26	=26	=26	=26	=26	=26	=26	=26
*	*	*	*	*	*	*	*	*	*	*	*	*	*	*ij	*	*
2.G/	2.GG/	2.ryy	2.b/	2.d\	2.gg/	2.b\	4B\	-ſan-	4B\	-ſan-	4b\	-ſan-	4b\	-ſan-	2.g\	2.b\
.	.	.	.	.	.	.	4B\	-na	4B\	-na	4b\	-na	4b\	-na	.	.
*	*	*	*	*	*	*	*	*Xij	*	*	*	*Xij	*	*Xij	*	*
.	.	.	.	.	.	.	8D/	in	8D/	in	8d\	in	8d/	in	.	.
.	.	.	.	.	.	.	8D/	ex-	8D/	ex-	8d\	ex-	8d/	ex-	.	.
!LO:LB:g=original	!LO:LB:g=original	!	!	!	!	!	!	!	!	!	!	!	!	!	!	!
=27	=27	=27	=27	=27	=27	=27	=27	=27	=27	=27	=27	=27	=27	=27	=27	=27
2.G/	2.GG/	2.ryy	2.b/	2.d\	2.gg/	2.b\	2E\	-cel-	2E/	-cel-	2e\	-cel-	2e/	-cel-	2.g\	2.b\
.	.	.	.	.	.	.	4F#\	.	4F#/	.	4f#\	.	4f#/	.	.	.
!	!	!	!	!	!	!	!	!	!	!	!LO:LB:g=original	!	!	!	!	!
=28	=28	=28	=28	=28	=28	=28	=28	=28	=28	=28	=28	=28	=28	=28	=28	=28
2.G/	2.GG/	2.ryy	2.b/	2.d\	2.gg/	2.b\	2G\	-sis	2G,</	-sis	2g\	-sis,	2g/	-sis	2.g\	2.b\
.	.	.	.	.	.	.	4D\	O-	4D/	O-	4d\	O-	4d/	O-	.	.
!	!	!	!	!	!	!	!	!	!	!	!	!	!LO:LB:g=original	!	!	!
=29	=29	=29	=29	=29	=29	=29	=29	=29	=29	=29	=29	=29	=29	=29	=29	=29
2.G/	2.GG/	2.ryy	2.b/	2.d\	2.gg/	2.b\	4G\	-ſan-	4G/	-ſan-	4g\	-ſan-	4g\	-ſan-	2.g\	2.b\
.	.	.	.	.	.	.	4G\	-na	4G/	-na	4g\	-na	4g\	-na	.	.
*	*	*	*	*	*	*	*	*	*	*	*	*ij	*	*	*	*
.	.	.	.	.	.	.	4A\	O-	4A/	O-	4a\	O-	4a\	O-	.	.
!	!	!	!	!	!	!	!LO:LB:g=original	!	!LO:LB:g=original	!	!	!	!	!	!	!
=30	=30	=30	=30	=30	=30	=30	=30	=30	=30	=30	=30	=30	=30	=30	=30	=30
2.G/	2.GG/	2.ryy	2.b/	2d\	2.gg/	2.b\	4B\	-ſan-	4B\	-ſan-	4b\	-ſan-	4b\	-ſan-	2.g\	2b\
.	.	.	.	.	.	.	4B\	-na	4B\	-na	4b\	-na	4b\	-na	.	.
*	*	*	*	*	*	*	*	*	*	*	*	*Xij	*	*	*	*
.	.	.	.	4d\yy	.	.	8D/	in	8D/	in	8d\	in	8d/	in	.	4ryy
.	.	.	.	.	.	.	8D/	ex-	8D/	ex-	8d\	ex-	8d/	ex-	.	.
=31	=31	=31	=31	=31	=31	=31	=31	=31	=31	=31	=31	=31	=31	=31	=31	=31
2.G/	2.GG/	2.ryy	2.b/	2.d\	2.gg/	2.b\	2E\	-cel-	2E/	-cel-	2e\	-cel-	2e/	-cel-	2.g\	2.b\
.	.	.	.	.	.	.	4F#\	.	4F#/	.	4f#\	.	4f#/	.	.	.
=32	=32	=32	=32	=32	=32	=32	=32	=32	=32	=32	=32	=32	=32	=32	=32	=32
2.G/	2.GG/	2.ryy	2b/	2d\	2.gg/	2b\yy	2.G\	.	2.G/	-sis	2.g\	.	2.g\	-sis	2g\	2b\
.	.	.	.	.	.	.	.	.	.	.	.	.	.	.	.	.
.	.	.	4d/	4d\yy	.	4dd\	.	.	.	.	.	.	.	.	4d/	4dd\
*	*	*	*v	*v	*	*	*	*	*	*	*	*	*	*	*	*
*	*	*	*	*v	*v	*	*	*	*	*	*	*	*	*	*
!	!	!	!	!LO:LB:g=original	!	!	!	!	!	!	!	!	!	!
=33	=33	=33	=33	=33	=33	=33	=33	=33	=33	=33	=33	=33	=33	=33
!	!	!	!	!	!	!	!LO:TX:t=4.	!	!	!	!	!	!	!
2.G/	2.GG/	2.ryy	4g/	4gg\	2.G\	.	0.d\	Oſan-	2.g\	.	2.b\	ex-	4g\	4b\
.	.	.	4g/	4gg\	.	.	.	.	.	.	.	.	4g\	4b\
.	.	.	4a/	4dd\	.	.	.	.	.	.	.	.	4a\	4cc\
!	!	!	!LO:LB:g=original	!	!	!	!	!	!	!	!	!	!	!
=34	=34	=34	=34	=34	=34	=34	=34	=34	=34	=34	=34	=34	=34	=34
2.G/	2.GG/	2.ryy	4b/	4bb\	2.G\	.	.	.	2.g\	.	2.b\	-cel-	4b\	4dd\
.	.	.	4b/	4bb\	.	.	.	.	.	.	.	.	4b\	4dd\
.	.	.	4d/	4dd\	.	.	.	.	.	.	.	.	4g\	4b\
=35	=35	=35	=35	=35	=35	=35	=35	=35	=35	=35	=35	=35	=35	=35
2.G/	2.GG/	2.ryy	4e/	4ee\	2.G\	.	.	.	2.g\	.	2.b\	.	4a\	4cc\
.	.	.	4e/	4ee\	.	.	.	.	.	.	.	.	4a\	4cc\
.	.	.	4f#/	4ff#\	.	.	.	.	.	.	.	.	4d/	4a\
=36	=36	=36	=36	=36	=36	=36	=36	=36	=36	=36	=36	=36	=36	=36
!	!	!	!	!	!	!	!	!	!	!	!	!	!LO:TX:a:t=re	!
2.G/	2.GG/	2.ryy	2.g/	2.gg\	2G\	-sis	.	.	2g\	-sis,	2b\	-sis	2.g\	2.b\
.	.	.	.	.	4G\	Ex-	.	.	4G/	O-	4g\	O-	.	.
=37	=37	=37	=37	=37	=37	=37	=37	=37	=37	=37	=37	=37	=37	=37
*	*	*	*^	*	*	*	*	*	*	*	*	*	*	*
!	!	!	!	!	!LO:TX:t=P:problem=takt zapisany powtórką	!	!	!LO:TX:t=4.	!	!	!	!	!	!LO:TX:a:t=tro	!
2.C/	2.CC/	2.ryy	2.e/	2.c\	2.gg\	2.C/	-cel-	0.G/	.	4c/	-ſan-	4cc\	-ſan-	0.r	0.r
.	.	.	.	.	.	.	.	.	.	4c/	-na	4cc\	-na	.	.
*	*	*	*	*	*	*	*	*	*	*	*ij	*	*	*	*
.	.	.	.	.	.	.	.	.	.	4d\	O-	4dd\	O-	.	.
*v	*v	*	*	*	*	*	*	*	*	*	*	*	*	*	*
=38	=38	=38	=38	=38	=38	=38	=38	=38	=38	=38	=38	=38	=38	=38
*	*	*	*	*^	*	*	*	*	*	*	*	*	*	*
2.GG/	2.ryy	2.e/	2.c\	2.gg/	2.b\	2.C/	.	.	.	4e\	-ſan-	4ee\	-ſan-	.	.
.	.	.	.	.	.	.	.	.	.	4e\	-na	4ee\	-na	.	.
*	*	*	*	*	*	*	*	*	*	*	*Xij	*	*	*	*
.	.	.	.	.	.	.	.	.	.	8G/	in	8g/	in	.	.
.	.	.	.	.	.	.	.	.	.	8G/	ex-	8g/	ex-	.	.
!	!	!	!	!	!	!	!	!	!	!	!	!LO:LB:g=original	!	!	!
=39	=39	=39	=39	=39	=39	=39	=39	=39	=39	=39	=39	=39	=39	=39	=39
2.GG/	2.ryy	2.e/	2.c\	2.gg/	2.b\	2.C/	.	.	.	2A/	-cel-	2a\	-cel-	.	.
.	.	.	.	.	.	.	.	.	.	4B/	.	4b\	.	.	.
!	!	!	!	!	!	!	!	!	!	!LO:LB:g=original	!	!	!	!	!
=40	=40	=40	=40	=40	=40	=40	=40	=40	=40	=40	=40	=40	=40	=40	=40
2.GG/	2.ryy	2e/	2.c\	2.gg/	2.b\	2.C/	.	.	.	2c/	-sis	2cc\	-sis	.	.
.	.	4ryy	.	.	.	.	.	.	.	4G/	O-	4g/	O-	.	.
=41	=41	=41	=41	=41	=41	=41	=41	=41	=41	=41	=41	=41	=41	=41	=41
*^	*	*	*	*	*	*	*	*	*	*	*	*	*	*	*
2.C/	2.CC/	2.ryy	2.e/	2.c\	2.gg/	2.b\	2.C/	.	2.G/	.	4c\	-ſan-	4cc\	-ſan-	0.r	0.r
.	.	.	.	.	.	.	.	.	.	.	4c\	-na	4cc\	-na	.	.
*	*	*	*	*	*	*	*	*	*	*	*	*ij	*	*	*	*
.	.	.	.	.	.	.	.	.	.	.	4d\	O-	4dd\	O-	.	.
*v	*v	*	*	*	*	*	*	*	*	*	*	*	*	*	*	*
!LO:LB:g=original	!	!	!	!	!	!	!	!	!	!	!	!	!	!	!
=42	=42	=42	=42	=42	=42	=42	=42	=42	=42	=42	=42	=42	=42	=42	=42
2.CC/ 2.C 2.G	2.ryy	2.e/	2.c\	2.gg/	2.b\	2.C/	.	2.G/	.	4e\	-ſan-	4ee\	-ſan-	.	.
.	.	.	.	.	.	.	.	.	.	4e\	-na	4ee\	-na	.	.
*	*	*	*	*	*	*	*	*	*	*	*Xij	*	*	*	*
.	.	.	.	.	.	.	.	.	.	8G/	in	8g/	in	.	.
.	.	.	.	.	.	.	.	.	.	8G/	ex-	8g/	ex-	.	.
!	!	!	!	!	!	!LO:LB:g=original	!	!	!	!	!	!	!	!	!
=43	=43	=43	=43	=43	=43	=43	=43	=43	=43	=43	=43	=43	=43	=43	=43
!	!	!LO:TX:t=P:problem=takty 43-48 zapisane powtórką	!	!	!	!	!	!	!	!	!	!	!	!	!
2.C/	2.ryy	2.e/	2.c\	2.gg/	2.b\	2.C/	.	2.G/	.	2A/	-cel-	2a\	-cel-	.	.
.	.	.	.	.	.	.	.	.	.	4B/	.	4b\	.	.	.
=44	=44	=44	=44	=44	=44	=44	=44	=44	=44	=44	=44	=44	=44	=44	=44
2.C/	2.ryy	2.e/	2.c\	2.gg/	2.b\	2C/	-sis	2G,</	-na	2.c/	-sis	2.cc\	.	.	.
*	*	*	*	*	*	*	*	*	*ij	*	*	*	*	*	*
.	.	.	.	.	.	4GG/	O-	4G/	O-	.	.	.	.	.	.
=45	=45	=45	=45	=45	=45	=45	=45	=45	=45	=45	=45	=45	=45	=45	=45
!	!	!	!	!LO:TX:t=P:problem=takty 45-51 zapisane powtórką	!	!	!	!	!	!	!	!	!	!	!
2.C/	2.ryy	2.e/	2.c\	2.gg/	2.b\	4C/	-ſan-	4c\	-ſan-	2.e\	O-	2.cc\	.	0.r	0.r
.	.	.	.	.	.	4C/	-na	4c,<\	-na,	.	.	.	.	.	.
.	.	.	.	.	.	4D/	O-	4d\	O-	.	.	.	.	.	.
=46	=46	=46	=46	=46	=46	=46	=46	=46	=46	=46	=46	=46	=46	=46	=46
2.C/	2.ryy	2e/	2.c\	2.gg/	2.b\	4E\	-ſan-	4e\	-ſan-	2.e\	-ſan-	2.cc\	.	.	.
.	.	.	.	.	.	4E\	-na	4e\	-na	.	.	.	.	.	.
*	*	*	*	*	*	*	*	*	*Xij	*	*	*	*	*	*
.	.	4ryy	.	.	.	8GG/	in	8G/	in	.	.	.	.	.	.
.	.	.	.	.	.	8GG/	ex-	8G/	ex-	.	.	.	.	.	.
=47	=47	=47	=47	=47	=47	=47	=47	=47	=47	=47	=47	=47	=47	=47	=47
2.C/	2.ryy	2.e/	2.c\	2.gg/	2.b\	2AA/	-cel-	2A\	-cel-	2.e\	-na	2.cc\	.	.	.
.	.	.	.	.	.	4BB/	.	4B\	.	.	.	.	.	.	.
=48	=48	=48	=48	=48	=48	=48	=48	=48	=48	=48	=48	=48	=48	=48	=48
2.C/	2.ryy	2.e/	2.c\	2.gg/	2.b\	2C/	-sis	2c\	-sis	2.e\	in	2.cc\	.	.	.
.	.	.	.	.	.	4GG/	O-	4G/	O-	.	.	.	.	.	.
=49	=49	=49	=49	=49	=49	=49	=49	=49	=49	=49	=49	=49	=49	=49	=49
2.C/	2.ryy	2.cc/	2.e\	2.gg/	2.b\	4C/	-ſan-	4c\	-ſan-	2.e\	ex-	2.cc\	.	0.r	0.r
.	.	.	.	.	.	4C/	-na	4c,<\	-na,	.	.	.	.	.	.
*	*	*	*	*	*	*	*ij	*	*	*	*	*	*	*	*
.	.	.	.	.	.	4D/	O-	4d\	O-	.	.	.	.	.	.
!	!	!	!	!	!	!	!	!	!	!	!	!LO:LB:g=original	!	!	!
=50	=50	=50	=50	=50	=50	=50	=50	=50	=50	=50	=50	=50	=50	=50	=50
2.C/	2.ryy	2.cc/	2.e\	2.gg/	2.b\	4E\	-ſan-	4e\	-ſan-	2e\	-cel-	2.cc\	.	.	.
.	.	.	.	.	.	4E\	-na	4e\	-(n)a	.	.	.	.	.	.
*	*	*	*	*	*	*	*Xij	*	*	*	*	*	*	*	*
.	.	.	.	.	.	8GG/	in	8G/	in	4ryy	.	.	.	.	.
.	.	.	.	.	.	8GG/	ex-	8G/	ex-	.	.	.	.	.	.
=51	=51	=51	=51	=51	=51	=51	=51	=51	=51	=51	=51	=51	=51	=51	=51
2.C/	2.ryy	2.cc/	2.e\	2.gg/	2.b\	2AA/	-cel-	2A\	-cel-	2.e\	.	2.cc\	.	.	.
.	.	.	.	.	.	4BB/	.	4B\	.	.	.	.	.	.	.
!	!	!	!	!	!	!LO:LB:g=original	!	!	!	!	!	!	!	!	!
=52	=52	=52	=52	=52	=52	=52	=52	=52	=52	=52	=52	=52	=52	=52	=52
2.C/	2.ryy	2cc/	2e\	2.gg/	2cc\	2.C/	.	2.c\	.	2.e\	.	2.cc\	.	.	.
.	.	4cc/	4e\	.	4g/	.	.	.	.	.	.	.	.	.	.
*	*	*v	*v	*	*	*	*	*	*	*	*	*	*	*	*
*	*	*	*v	*v	*	*	*	*	*	*	*	*	*	*
=53	=53	=53	=53	=53	=53	=53	=53	=53	=53	=53	=53	=53	=53
!	!	!	!	!	!	!LO:TX:t=4.	!	!	!	!	!	!	!
2.C/	2.ryy	4e/	4cc\	2.C/	.	0.G/	.	2.e\	.	2.cc\	.	0.r	0.r
.	.	4e/	4cc\	.	.	.	.	.	.	.	.	.	.
.	.	4g/	4dd\	.	.	.	.	.	.	.	.	.	.
=54	=54	=54	=54	=54	=54	=54	=54	=54	=54	=54	=54	=54	=54
2.C/	2.ryy	4cc\	4ee\	2.C/	.	.	.	2.e\	.	2.cc\	.	.	.
.	.	4cc\	4ee\	.	.	.	.	.	.	.	.	.	.
.	.	4e/	4g/	.	.	.	.	.	.	.	.	.	.
!	!	!	!	!	!	!	!	!LO:LB:g=original	!	!	!	!	!
=55	=55	=55	=55	=55	=55	=55	=55	=55	=55	=55	=55	=55	=55
2.C/	2.ryy	4f#/	4a/	2.C/	.	.	.	2.e\	.	2.cc\	.	.	.
.	.	4f#/	4a/	.	.	.	.	.	.	.	.	.	.
.	.	4g/	4b/	.	.	.	.	.	.	.	.	.	.
=56	=56	=56	=56	=56	=56	=56	=56	=56	=56	=56	=56	=56	=56
2.C/	2.ryy	2e/	2cc\	2.C/	.	.	.	2.e\	.	2.cc\	.	.	.
.	.	4g/	4g/	.	.	.	.	.	.	.	.	.	.
!	!	!	!	!	!	!LO:LB:g=original	!	!	!	!	!	!	!
=57	=57	=57	=57	=57	=57	=57	=57	=57	=57	=57	=57	=57	=57
2.C/	2.ryy	4e/	4cc\	2.C/	.	2.G/	.	2.e\	.	2.cc\	.	0.r	0.r
.	.	4e/	4cc\	.	.	.	.	.	.	.	.	.	.
.	.	4g/	4dd\	.	.	.	.	.	.	.	.	.	.
!	!	!	!LO:LB:g=original	!	!	!	!	!	!	!	!	!	!
=58	=58	=58	=58	=58	=58	=58	=58	=58	=58	=58	=58	=58	=58
2.C/	2.ryy	4cc\	4ee\	2.C/	.	2.G/	.	2.e\	.	2.cc\	.	.	.
.	.	4cc\	4ee\	.	.	.	.	.	.	.	.	.	.
.	.	4e/	4g/	.	.	.	.	.	.	.	.	.	.
!LO:LB:g=original	!	!	!	!	!	!	!	!	!	!	!	!	!
=59	=59	=59	=59	=59	=59	=59	=59	=59	=59	=59	=59	=59	=59
2.C/	2.ryy	4f#/	8a/L	2.C/	.	2.G/	.	2.e\	.	2.cc\	.	.	.
.	.	.	8g/J	.	.	.	.	.	.	.	.	.	.
.	.	4f#/	4a/	.	.	.	.	.	.	.	.	.	.
.	.	4g/	4b/	.	.	.	.	.	.	.	.	.	.
!	!	!LO:LB:g=original	!	!	!	!	!	!	!	!	!	!	!
=60	=60	=60	=60	=60	=60	=60	=60	=60	=60	=60	=60	=60	=60
*	*	*^	*	*	*	*	*	*	*	*	*	*	*
2.C/	2.ryy	2.cc/	2.e\	2.cc\	2.C/	-sis	2G/	-sis	2.e\	-sis	2cc\	-sis	.	.
.	.	.	.	.	.	.	4G/	O-	.	.	4g/	O-	.	.
=61	=61	=61	=61	=61	=61	=61	=61	=61	=61	=61	=61	=61	=61	=61
*	*	*	*	*^	*	*	*	*	*	*	*	*	*	*
2.C/	2.ryy	2.cc/	2.e\	2.gg/	2.cc\	4C/	O-	4E/	-ſan-	4c\	O-	4cc\	-ſan-	0.r	0.r
.	.	.	.	.	.	4C/	-ſan-	8E/L	.	4e\	-ſan-	8cc\L	.	.	.
.	.	.	.	.	.	.	.	8G/J	.	.	.	8dd\J	.	.	.
.	.	.	.	.	.	4D/	-na	8c\L	.	4fn\	-na	8ee\L	-na	.	.
.	.	.	.	.	.	.	.	8d\J	.	.	.	8ff#\J	.	.	.
=62	=62	=62	=62	=62	=62	=62	=62	=62	=62	=62	=62	=62	=62	=62	=62
2.C/	2.ryy	2.cc/	2.e\	2.gg/	2.cc\	2E\	in	2e\	-na	2g\	in	2gg\	in	.	.
.	.	.	.	.	.	4F#\	ex-	4f#\	.	4a\	ex-	4aa\	ex-	.	.
=63	=63	=63	=63	=63	=63	=63	=63	=63	=63	=63	=63	=63	=63	=63	=63
2.C/	2.ryy	2.cc/	2.e\	2.gg/	2.cc\	4.E\	-cel-	4.e\	in	4.g\	-cel-	4.gg\	-cael-	.	.
.	.	.	.	.	.	8D\L	.	8d\L	ex-	8f#\L	.	8ff#\L	.	.	.
.	.	.	.	.	.	8C\	.	8c\	.	8e\	.	8ee\	.	.	.
.	.	.	.	.	.	8D\J	.	8d\J	-cel-	8f#\J	.	8ff#\J	.	.	.
!	!	!	!	!	!	!	!	!	!	!	!	!LO:LB:g=original	!	!	!
=64	=64	=64	=64	=64	=64	=64	=64	=64	=64	=64	=64	=64	=64	=64	=64
!	!	!LO:TX:t=P:problem=takty 64-67 zapisane powtórką	!	!	!	!	!	!	!	!	!	!	!	!	!
2.C/	2.ryy	2.cc/	2.e\	2.gg/	2.cc\	2.E\	-sis	2.e\	-sis	2.g\	-sis	2.gg\	-sis	.	.
!	!	!	!	!	!	!LO:LB:g=original	!	!	!	!	!	!	!	!	!
=65	=65	=65	=65	=65	=65	=65	=65	=65	=65	=65	=65	=65	=65	=65	=65
2.C/	2.ryy	2.cc/	2.e\	2.gg/	2.cc\	4C/	O-	4G/	O-	4c\	O-	4cc\	O-	0.r	0.r
.	.	.	.	.	.	4C/	-ſan-	4c\	-ſan-	4e\	-ſan-	4ee\	-ſan-	.	.
.	.	.	.	.	.	4D/	-na	4d\	-na	4fn\	-na	4ff#\	-na	.	.
=66	=66	=66	=66	=66	=66	=66	=66	=66	=66	=66	=66	=66	=66	=66	=66
2.C/	2.ryy	2.cc/	2.e\	2.gg/	2.cc\	2E\	in	2e\	in	2g\	in	2gg\	in	.	.
.	.	.	.	.	.	4F#\	ex-	4f#\	ex-	4a\	ex-	4aa\	ex-	.	.
=67	=67	=67	=67	=67	=67	=67	=67	=67	=67	=67	=67	=67	=67	=67	=67
2.C/	2.ryy	2.cc/	2.e\	2.gg/	2.cc\	4.G\	-cel-	4.e\	-Cael-	4.g\	-cel-	4.gg\	-cel-	.	.
.	.	.	.	.	.	8F#\L	.	8d\L	.	8f#\L	.	8ff#\L	.	.	.
.	.	.	.	.	.	8E\	.	8c\	.	8e\	.	8ee\	.	.	.
.	.	.	.	.	.	8D\J	.	8G\J	.	8d\J	.	8dd\J	.	.	.
=68	=68	=68	=68	=68	=68	=68	=68	=68	=68	=68	=68	=68	=68	=68	=68
2.C/	2.ryy	2cc/	2e\	2.gg/	2cc\	2.C/	.	2E/	-sis	2.c/	-sis	2.cc\	.	.	.
.	.	4cc\	4d\yy	.	4cc\	.	.	4c\	ex-	.	.	.	.	.	.
*	*	*v	*v	*	*	*	*	*	*	*	*	*	*	*	*
*	*	*	*v	*v	*	*	*	*	*	*	*	*	*	*
!	!	!	!	!	!	!	!	!LO:LB:g=original	!	!	!	!	!
=69	=69	=69	=69	=69	=69	=69	=69	=69	=69	=69	=69	=69	=69
*2\right	*	*	*	*	*	*	*	*	*	*	*	*	*
!	!	!	! 	!	!	!LO:TX:t=4.	!	!	!	!	!	!	!
2.Fn\	2.ryy	4ffn\	4ff#\	2.F#\	.	0.f#\	-cel-	2.a\	O-	2.cc\	.	0.r	0.r
.	.	8ff\L	8ff#\L	.	.	.	.	.	.	.	.	.	.
.	.	8ee\	8gg\	.	.	.	.	.	.	.	.	.	.
.	.	8ff\	8aa\	.	.	.	.	.	.	.	.	.	.
.	.	8gg\J	8bb-X\J	.	.	.	.	.	.	.	.	.	.
=70	=70	=70	=70	=70	=70	=70	=70	=70	=70	=70	=70	=70	=70
2.F#\	2.ryy	2aa\	2ccc\	2.F#\	.	.	.	2.a\	-ſan-	2.cc\	.	.	.
.	.	4bb-X\	4ddd\	.	.	.	.	.	.	.	.	.	.
=71	=71	=71	=71	=71	=71	=71	=71	=71	=71	=71	=71	=71	=71
2.F#\	2.ryy	4.aa\	4.ccc\	2.F#\	.	.	.	2.a\	-na	2.cc\	.	.	.
.	.	8gg\L	8bb\L	.	.	.	.	.	.	.	.	.	.
.	.	8ff#\	8aa\	.	.	.	.	.	.	.	.	.	.
.	.	8gg\J	8bb\J	.	.	.	.	.	.	.	.	.	.
=72	=72	=72	=72	=72	=72	=72	=72	=72	=72	=72	=72	=72	=72
2.F#\	2.ryy	2aa\	2ccc\	2.F#\	.	.	.	2.a\	in	2.cc\	.	.	.
.	.	4cc\	4cc\	.	.	.	.	.	.	.	.	.	.
=73	=73	=73	=73	=73	=73	=73	=73	=73	=73	=73	=73	=73	=73
2.F#\	2.ryy	4a/	4ffn\	2.F#\	.	2.f#\	-sis	2.a\	ex-	2.cc\	.	0.r	0.r
.	.	8a/L	8ff\L	.	.	.	.	.	.	.	.	.	.
.	.	8cc/J	8gg\	.	.	.	.	.	.	.	.	.	.
.	.	8ff#\L	8aa\	.	.	.	.	.	.	.	.	.	.
.	.	8gg\J	8bb-X\J	.	.	.	.	.	.	.	.	.	.
!	!	!	!LO:LB:g=original	!	!	!	!	!	!	!	!	!	!
=74	=74	=74	=74	=74	=74	=74	=74	=74	=74	=74	=74	=74	=74
2.F#\	2.ryy	2aa\	2ccc\	2.F#\	.	2.f#\	O-	2.a\	-cel-	2.cc\	.	.	.
.	.	4bb\	4ddd\	.	.	.	.	.	.	.	.	.	.
=75	=75	=75	=75	=75	=75	=75	=75	=75	=75	=75	=75	=75	=75
2.F#\	2.ryy	4aa\	4ccc\	2.F#\	.	2.f#\	-ſan-	2.a\	.	2.cc\	.	.	.
.	.	8aa\L	8ccc\L	.	.	.	.	.	.	.	.	.	.
.	.	8gg\	8bb-X\	.	.	.	.	.	.	.	.	.	.
!	!	!LO:N:acc=-	!	!	!	!	!	!	!	!	!	!	!
.	.	8ffnX\	8aa\	.	.	.	.	.	.	.	.	.	.
.	.	8ee\J	8gg\J	.	.	.	.	.	.	.	.	.	.
!LO:LB:g=original	!	!	!	!	!	!	!	!	!	!	!	!	!
=76	=76	=76	=76	=76	=76	=76	=76	=76	=76	=76	=76	=76	=76
*	*	*^	*^	*	*	*	*	*	*	*	*	*	*
2.Fn\	2.ryy	2.a/	2f#\	2.ffn/	2.a\	2F#\	-sis.	2f#\	-na	2a\	-sis	2cc\	-sis,	.	.
.	.	.	4f#\yy	.	.	4C/	O-	4c\	O-	4c\	O-	4cc\	O-	.	.
!	!	!LO:LB:g=original	!LO:LB:g=original	!	!	!	!	!	!	!	!	!LO:LB:g=original	!	!	!
=77	=77	=77	=77	=77	=77	=77	=77	=77	=77	=77	=77	=77	=77	=77	=77
2.F#\	2.ryy	2.a/	2.f#\	2.ff#/	2.a\	4Fn\	-ſan-	4f#\	-ſan-	4fn\	-ſan-	4ffn\	-ſan-	0.r	0.r
.	.	.	.	.	.	4F\	-na	4f#\	-na	4f\	-na	4ff\	-na	.	.
!	!	!	!	!	!	!LO:LB:g=original	!	!	!	!	!	!	!	!	!
=-	=-	=-	=-	=-	=-	=-	=-	=-	=-	=-	=-	=-	=-	=-	=-
.	.	.	.	.	.	4G\	O-	4g\	O-	4g\	O-	4gg\	O-	.	.
=78	=78	=78	=78	=78	=78	=78	=78	=78	=78	=78	=78	=78	=78	=78	=78
2.F#\	2.ryy	2.a/	2.f#\	2.ff#/	2.a\	4A\	-ſan-	4a\	-ſan-	4a\	-ſan-	4aa\	-ſan-	.	.
.	.	.	.	.	.	4A\	-na	4a\	-na	4a\	-na	4aa\	-na	.	.
.	.	.	.	.	.	8C/	in	8c\	in	8c/	in	8cc\	in	.	.
.	.	.	.	.	.	8C/	ex-	8c\	ex-	8c/	ex-	8cc\	ex-	.	.
=79	=79	=79	=79	=79	=79	=79	=79	=79	=79	=79	=79	=79	=79	=79	=79
2.F#\	2.ryy	2.a/	2.f#\	2.ff#/	2.a\	2D\	-cel-	2d\	-cel-	2d\	-cel-	2dd\	-cel-	.	.
.	.	.	.	.	.	4E\	.	4e\	.	4e\	.	4ee\	.	.	.
=80	=80	=80	=80	=80	=80	=80	=80	=80	=80	=80	=80	=80	=80	=80	=80
!	!	!LO:TX:t=P:problem=takty 80-83 zapisane powtórką	!	!	!	!	!	!	!	!	!	!	!	!	!
2.F#\	2.ryy	2.a/	2f#\	2.ff#/	2.a\	2F#\	-sis	2f#\	-sis	2f#\	-sis	2ff#\	-sis	.	.
.	.	.	4f#\yy	.	.	4C/	O-	4c\	o-	4c\	O-	4cc\	O-	.	.
=81	=81	=81	=81	=81	=81	=81	=81	=81	=81	=81	=81	=81	=81	=81	=81
2.F#\	2.ryy	2.a/	2.f#\	2.ff#/	2.a\	4F#\	-ſan-	4f#\	-ſan-	4f#\	-ſan-	4ff#\	-ſan-	0.r	0.r
.	.	.	.	.	.	4F#\	-na	4f#\	-na	4f#\	-na	4ff#\	-na	.	.
*	*	*	*	*	*	*	*ij	*	*	*	*	*	*	*	*
.	.	.	.	.	.	4G\	O-	4g\	O-	4g\	O-	4gg\	O-	.	.
!	!	!	!	!	!	!	!	!LO:LB:g=original	!	!LO:LB:g=original	!	!	!	!	!
=82	=82	=82	=82	=82	=82	=82	=82	=82	=82	=82	=82	=82	=82	=82	=82
2.F#\	2.ryy	2.a/	2.f#\	2.ff#/	2.a\	4A\	-ſan-	4a\	-ſan-	4a\	-ſan-	4aa\	-ſan-	.	.
.	.	.	.	.	.	4A\	-na	4a\	-na	4a\	-na	4aa\	-na	.	.
*	*	*	*	*	*	*	*Xij	*	*	*	*	*	*	*	*
.	.	.	.	.	.	8C/	in	8c\	in	8c/	in	8cc\	in	.	.
.	.	.	.	.	.	8C/	ex-	8c\	ex-	8c/	ex-	8cc\	ex-	.	.
=83	=83	=83	=83	=83	=83	=83	=83	=83	=83	=83	=83	=83	=83	=83	=83
2.F#\	2.ryy	2.a/	2.f#\	2.ff#/	2.a\	2D\	-cel-	2d\	-cel-	2d\	-cel-	2dd\	-cel-	.	.
.	.	.	.	.	.	4E\	.	4e\	.	4e\	.	4ee\	.	.	.
=84	=84	=84	=84	=84	=84	=84	=84	=84	=84	=84	=84	=84	=84	=84	=84
!	!	!	!	!	!	!	!	!LO:TX:t=4.	!	!	!	!	!	!	!
2.F#\	2.ryy	2a/	2f#\	2.ff#/	2a\	2.F#\	.	0.f#\	.	2.f#\	-sis	2ff#\	-sis	.	.
.	.	4c/	4e\yy	.	4a/	.	.	.	.	.	.	4cc\	O-	.	.
*	*	*v	*v	*	*	*	*	*	*	*	*	*	*	*	*
*	*	*	*v	*v	*	*	*	*	*	*	*	*	*	*
!	!	!	!	!	!	!	!	!	!	!	!	!LO:LB:g=original	!
=85	=85	=85	=85	=85	=85	=85	=85	=85	=85	=85	=85	=85	=85
2.F#\	2.ryy	4f#/	4ffn\	2.F#\	.	.	.	2.a\	O-	2.cc\	-ſan-	0.r	0.r
.	.	4f#/	4ff\	.	.	.	.	.	.	.	.	.	.
.	.	4g/	4gg\	.	.	.	.	.	.	.	.	.	.
!	!	!	!	!	!	!	!	!	!	!LO:LB:g=original	!	!	!
=86	=86	=86	=86	=86	=86	=86	=86	=86	=86	=86	=86	=86	=86
2.F#\	2.ryy	4a/	4aa\	2.F#\	.	.	.	2.a\	-ſan-	2.cc\	.	.	.
.	.	4a/	4aa\	.	.	.	.	.	.	.	.	.	.
.	.	4c/	4cc\	.	.	.	.	.	.	.	.	.	.
=87	=87	=87	=87	=87	=87	=87	=87	=87	=87	=87	=87	=87	=87
2.F#\	2.ryy	4d/	4dd\	2.F#\	.	.	.	2.a\	-na	2.cc\	.	.	.
.	.	4d/	4dd\	.	.	.	.	.	.	.	.	.	.
.	.	4e/	4ee\	.	.	.	.	.	.	.	.	.	.
=88	=88	=88	=88	=88	=88	=88	=88	=88	=88	=88	=88	=88	=88
!	!	!	!	!	!	!LO:TX:t=4.	!	!	!	!	!	!	!
2.F#\	2.ryy	2f#/	4ff#\	2.F#\	.	0.f#\	.	2.a\	in	2.cc\	.	.	.
.	.	.	4ff#\	.	.	.	.	.	.	.	.	.	.
.	.	4c/	4cc\	.	.	.	.	.	.	.	.	.	.
=89	=89	=89	=89	=89	=89	=89	=89	=89	=89	=89	=89	=89	=89
2.F#\	2.ryy	4f#/	4ff#\	2.F#\	.	.	.	2.a\	ex-	2.cc\	.	0.r	0.r
.	.	4f#/	4ff#\	.	.	.	.	.	.	.	.	.	.
.	.	4g/	4gg\	.	.	.	.	.	.	.	.	.	.
=90	=90	=90	=90	=90	=90	=90	=90	=90	=90	=90	=90	=90	=90
2.F#\	2.ryy	4a/	4aa\	2.F#\	.	.	.	2.a\	-cel-	2.cc\	.	.	.
.	.	4a/	4aa\	.	.	.	.	.	.	.	.	.	.
.	.	4c/	4cc/	.	.	.	.	.	.	.	.	.	.
!	!	!	!LO:LB:g=original	!LO:LB:g=original	!	!	!	!	!	!	!	!	!
=91	=91	=91	=91	=91	=91	=91	=91	=91	=91	=91	=91	=91	=91
2.F#\	2.ryy	4d/	4dd\	2.F#\	.	.	.	2.a\	.	2.cc\	.	.	.
.	.	4d/	4dd\	.	.	.	.	.	.	.	.	.	.
.	.	4e/	4ee\	.	.	.	.	.	.	.	.	.	.
!LO:LB:g=original	!	!	!	!	!	!	!	!	!	!	!	!	!
=92	=92	=92	=92	=92	=92	=92	=92	=92	=92	=92	=92	=92	=92
!LO:TX:t=P:problem=1 nadmiarowy takt w partii Canto.	!LO:TX:t=P:problem=1 nadmiarowy takt w partii Canto.	!LO:TX:t=P:problem=1 nadmiarowy takt w partii Canto.	!LO:TX:t=P:problem=1 nadmiarowy takt w partii Canto.	!LO:TX:t=P:problem=1 nadmiarowy takt w partii Canto.	!	!LO:TX:t=P:problem=1 nadmiarowy takt w partii Canto.	!	!LO:TX:t=P:problem=1 nadmiarowy takt w partii Canto.	!	!LO:TX:t=P:problem=1 nadmiarowy takt	!	!LO:TX:t=P:problem=1 nadmiarowy takt w partii Canto.	!LO:TX:t=P:problem=1 nadmiarowy takt w partii Canto.
2.ryy	2.ryy	2.ryy	2.ryy	2.ryy	.	2.ryy	.	2.ryy	.	2.cc\	.	.	.
=93	=93	=93	=93	=93	=93	=93	=93	=93	=93	=93	=93	=93	=93
*	*	*^	*	*	*	*	*	*	*	*	*	*	*
2.Fn\	2.ryy	2.a/	2f#\	2.ffn\	2F#\	-sis	2f#\	-sis,	2a\	-sis	2cc\	-na,	2.r	2.r
.	.	.	4f#\yy	.	4C/	O-	4c\	O-	4c/	O-	4cc\	O-	.	.
=94	=94	=94	=94	=94	=94	=94	=94	=94	=94	=94	=94	=94	=94	=94
*	*	*	*	*^	*	*	*	*	*	*	*	*	*	*
2.F#\	2.ryy	2.a/	2.f#\	2.ff#/	2.a\	4F#\	-ſan-	4f#\	-ſan-	4f#\	-ſan-	4ff#\	-ſan-	0.r	0.r
.	.	.	.	.	.	4F#\	-na	4f#\	-na	4f#\	-na	4ff#\	-na	.	.
*	*	*	*	*	*	*	*	*	*ij	*	*	*	*	*	*
*	*	*	*	*	*	*	*	*	*	*custos:a	*	*	*	*	*
.	.	.	.	.	.	4G\	O-	4g\	O-	4g\	O-	4gg\	O-	.	.
!	!	!	!	!	!	!	!	!	!	!LO:PB:g=original	!	!	!	!	!
=95	=95	=95	=95	=95	=95	=95	=95	=95	=95	=95	=95	=95	=95	=95	=95
2.F#\	2.ryy	2.a/	2.f#\	2.ff#/	2.a\	4A\	-ſan-	4a\	-ſan-	4a\	-ſan-	4aa\	-ſan-	.	.
.	.	.	.	.	.	4A\	-na	4a\	-na	4a\	-na	4aa\	-na	.	.
*	*	*	*	*	*	*	*	*	*Xij	*	*	*	*	*	*
.	.	.	.	.	.	8C/	in	8c\	in	8c/	in	8cc\	in	.	.
.	.	.	.	.	.	8C/	ex-	8c\	ex-	8c/	ex-	8cc\	ex-	.	.
=96	=96	=96	=96	=96	=96	=96	=96	=96	=96	=96	=96	=96	=96	=96	=96
2.F#\	2.ryy	2.a/	2.f#\	2.ff#/	2.a\	2D\	-cel-	2d\	-cel-	2d\	-cel-	2dd\	-cel-	.	.
.	.	.	.	.	.	4E\	.	4e\	.	4e\	.	4ee\	.	.	.
=97	=97	=97	=97	=97	=97	=97	=97	=97	=97	=97	=97	=97	=97	=97	=97
!	!	!LO:TX:t=P:problem=takty 96-99 zapisane powtórką	!	!	!	!	!	!	!	!	!	!	!	!	!
2.F#\	2.ryy	2.a/	2f#\	2.ff#/	2.a\	2F#\	-sis	2f#\	-sis	2f#,<\	-sis,	2ff#\	-sis	.	.
.	.	.	4f#\yy	.	.	4C/	O-	4c\	o-	4c/	O-	4cc\	O-	.	.
=98	=98	=98	=98	=98	=98	=98	=98	=98	=98	=98	=98	=98	=98	=98	=98
2.F#\	2.ryy	2.a/	2.f#\	2.ff#/	2.a\	4F#\	-ſan-	4f#\	-ſan-	4fn\	-ſan-	4ff#\	-ſan-	1.r	1.r
.	.	.	.	.	.	4F#\	-na	4f#\	-na	4f\	-na	4ff#\	-na	.	.
*	*	*	*	*	*	*	*ij	*	*ij	*	*ij	*	*	*	*
.	.	.	.	.	.	4G\	O-	4g\	o-	4g\	O-	4gg\	O-	.	.
!	!	!	!	!	!	!	!	!	!	!	!	!LO:LB:g=original	!	!	!
=99	=99	=99	=99	=99	=99	=99	=99	=99	=99	=99	=99	=99	=99	=99	=99
2.F#\	2.ryy	2.a/	2.f#\	2.ff#/	2.a\	4A\	-ſan-	4a\	-ſan-	4a\	-ſan-	4aa\	-ſan-	.	.
.	.	.	.	.	.	4A\	-na	4a\	-na	4a\	-na	4aa\	-na	.	.
*	*	*	*	*	*	*	*Xij	*	*Xij	*	*Xij	*	*	*	*
.	.	.	.	.	.	8C/	in	8c\	in	8c/	in	8cc\	in	.	.
.	.	.	.	.	.	8C/	ex-	8c\	ex-	8c/	ex-	8cc\	ex-	.	.
=100	=100	=100	=100	=100	=100	=100	=100	=100	=100	=100	=100	=100	=100	=100	=100
2.F#\	2.ryy	2.a/	2.f#\	2.ff#/	2.a\	2D\	-cel-	(2d\	-cel-	2d\	-cel-	2dd\	-cel-	2.r	2.r
.	.	.	.	.	.	4E\	.	4e\)	.	4e\	.	4ee\	.	.	.
=101	=101	=101	=101	=101	=101	=101	=101	=101	=101	=101	=101	=101	=101	=101	=101
2.F#\	2.ryy	2a/	2f#\	2ff#/	2a\	2F#\	.	2f#\	.	2f#\	-ſis	2ff#\	-sis	4r	4r
.	.	.	.	.	.	.	.	.	.	.	.	.	.	4r	4r
*	*	*	*	*v	*v	*	*	*	*	*	*	*	*	*	*
.	.	4dd\	4f#\yy	4dd\	4G\	.	4d\	.	4f#X\	O-	4dd\	ex-	4d/	4dd\
*	*	*v	*v	*	*	*	*	*	*	*	*	*	*	*
!	!	!	!	!	!	!	!	!	!	!	!	!	!LO:LB:g=original
=102	=102	=102	=102	=102	=102	=102	=102	=102	=102	=102	=102	=102	=102
!	!	!	!	!	!	!LO:TX:t=4.	!	!	!	!	!	!	!
2.G/	2.ryy	4b\	4gg\	2.G\	.	0.d\	.	2.b\	-ſan-	2.gg\	-cel-	4g\	4b\
.	.	4b\	4gg\	.	.	.	.	.	.	.	.	4g\	4b\
.	.	4cc\	4aa\	.	.	.	.	.	.	.	.	4a\	4cc\
!	!	!	!	!LO:LB:g=original	!	!	!	!	!	!	!	!	!
=103	=103	=103	=103	=103	=103	=103	=103	=103	=103	=103	=103	=103	=103
2.G/	2.ryy	4dd\	4bb\	2.G\	.	.	.	2.b\	-na	2.g/	.	4b\	4dd\
.	.	4dd\	4bb\	.	.	.	.	.	.	.	.	4b\	4dd\
.	.	4b\	4dd\	.	.	.	.	.	.	.	.	4d/	4b\
=104	=104	=104	=104	=104	=104	=104	=104	=104	=104	=104	=104	=104	=104
2.G/	2.ryy	4cc\	4ee\	2.GG/	.	.	.	2.B/	in	2.g/	.	4a\	4cc\
.	.	4cc\	4ee\	.	.	.	.	.	.	.	.	4a\	4cc\
.	.	4a/	4ff#\	.	.	.	.	.	.	.	.	4d/	4a\
!	!	!LO:LB:g=original	!	!	!	!	!	!LO:LB:g=original	!	!	!	!	!
=105	=105	=105	=105	=105	=105	=105	=105	=105	=105	=105	=105	=105	=105
2.G/	2.ryy	2b\	2gg\	2.GG/	.	.	.	2.B/	ex-	2.g/	.	2g\	2b\
.	.	4dd\	4dd\	.	.	.	.	.	.	.	.	4d/	4a\
=106	=106	=106	=106	=106	=106	=106	=106	=106	=106	=106	=106	=106	=106
*^	*	*	*	*	*	*	*	*	*	*	*	*	*
2.G/	2.GG\	2.ryy	4b\	4gg\	2.GG/	.	2.d\	.	2.B/	-cel-	2.g/	.	4g\	4b\
.	.	.	4b\	4gg\	.	.	.	.	.	.	.	.	4g\	4b\
.	.	.	4cc\	4aa\	.	.	.	.	.	.	.	.	4a\	4cc\
=107	=107	=107	=107	=107	=107	=107	=107	=107	=107	=107	=107	=107	=107	=107
2.G/	2.GG\	2.ryy	4dd\	4bb\	2.GG/	.	2.d\	.	2.B/	.	2.g/	.	4b\	4dd\
.	.	.	4dd\	4bb\	.	.	.	.	.	.	.	.	4b\	4dd\
.	.	.	4b\	4dd\	.	.	.	.	.	.	.	.	4g\	4b\
=108	=108	=108	=108	=108	=108	=108	=108	=108	=108	=108	=108	=108	=108	=108
2.G/	2.GG\	2.ryy	4cc\	4ee\	2.GG/	.	2.d\	.	2.B/	.	2.g/	.	4a\	4cc\
.	.	.	4cc\	4ee\	.	.	.	.	.	.	.	.	4a\	4cc\
.	.	.	4a/	4ff#\	.	.	.	.	.	.	.	.	4d/	4a\
!	!	!	!	!LO:LB:g=original	!	!	!LO:LB:g=original	!	!	!	!	!	!	!
=109	=109	=109	=109	=109	=109	=109	=109	=109	=109	=109	=109	=109	=109	=109
*	*	*	*^	*^	*	*	*	*	*	*	*	*	*	*
2.G/	2.GG\	2.ryy	2.b/	2.d\	2.gg/	2.b\	2GG/	-sis	2d\	-sis	2B/	-sis	2g/	-sis	2.g\	2.b\
.	.	.	.	.	.	.	4D/	O-	4D/	O-	4d\	O-	4d/	O-	.	.
!LO:LB:g=original	!LO:LB:g=original	!	!	!	!	!	!	!	!	!	!	!	!	!	!	!
=110	=110	=110	=110	=110	=110	=110	=110	=110	=110	=110	=110	=110	=110	=110	=110	=110
2.G/	2.GG\	2.ryy	2.b/	2.d\	2.gg/	2.b\	4G\	-ſan-	4G/	-ſan-	4g\	-ſan-	4g/	-ſan-	2.g\	2.b\
.	.	.	.	.	.	.	4G\	-na	4G/	-na	4g\	-na	4g/	-na	.	.
*	*	*	*	*	*	*	*	*	*	*	*	*	*	*ij	*	*
.	.	.	.	.	.	.	4A\	O-	4A/	o-	4a\	O-	4a\	O-	.	.
=111	=111	=111	=111	=111	=111	=111	=111	=111	=111	=111	=111	=111	=111	=111	=111	=111
*	*	*	*	*	*	*	*	*	*	*ij	*	*	*	*	*	*
2.G/	2.GG\	2.ryy	2.b/	2.d\	2.gg/	2.b\	4B\	-ſan-	4B\	-san-	4b\	-ſan-	4b\	-ſan-	2.g\	2.b\
.	.	.	.	.	.	.	4B\	-na	4B\	-na	4a\	-na	4b\	-na	.	.
*	*	*	*	*	*	*	*	*	*	*Xij	*	*	*	*Xij	*	*
.	.	.	.	.	.	.	8D/	in	8D/	in	8d\	in	8d/	in	.	.
.	.	.	.	.	.	.	8D/	ex-	8D/	ex-	8d\	ex-	8d/	ex-	.	.
!	!	!	!	!	!	!	!	!	!	!	!	!	!LO:LB:g=original	!	!	!
=112	=112	=112	=112	=112	=112	=112	=112	=112	=112	=112	=112	=112	=112	=112	=112	=112
2.G/	2.GG\	2.ryy	2.b/	2.d\	2.gg/	2.b\	2E\	-cel-	2E/	-cel-	2e\	-cel-	2e/	-cel-	2.g\	2.b\
.	.	.	.	.	.	.	4F#\	.	(<4F#/	-sis,	4f#\	.	4f#/	.	.	.
=113	=113	=113	=113	=113	=113	=113	=113	=113	=113	=113	=113	=113	=113	=113	=113	=113
!	!	!	!LO:TX:t=P:problem=takty 112-115 zapisane powtórką	!	!	!	!	!	!	!	!	!	!	!	!	!
2.G/	2.GG\	2.ryy	2.b/	2.d\	2.gg/	2.b\	2G\	-sis	2G,</)	.	2g,<\	-sis,	2g\	-sis,	2.g\	2.b\
.	.	.	.	.	.	.	4D/	O-	4D/	O-	4d\	O-	4d/	O-	.	.
=114	=114	=114	=114	=114	=114	=114	=114	=114	=114	=114	=114	=114	=114	=114	=114	=114
2.G/	2.GG\	2.ryy	2.b/	2.d\	2.gg/	2.b\	4G\	-ſan-	4G/	-ſan-	4g\	-ſan-	4g\	-ſan-	2.g\	2.b\
.	.	.	.	.	.	.	4G\	-na	4G/	-na	4g\	-na	4g\	-na	.	.
*	*	*	*	*	*	*	*	*	*	*ij	*	*	*	*ij	*	*
.	.	.	.	.	.	.	4A\	O-	4A/	O-	4a\	O-	4a\	O-	.	.
!	!	!	!	!	!	!	!LO:LB:g=original	!	!	!	!LO:LB:g=original	!	!	!	!	!
=115	=115	=115	=115	=115	=115	=115	=115	=115	=115	=115	=115	=115	=115	=115	=115	=115
2.G/	2.GG\	2.ryy	2.b/	2.d\	2.gg/	2.b\	4B\	-ſan-	4B\	-ſan-	4b\	-ſan-	4b\	-ſan-	2.g\	2.b\
.	.	.	.	.	.	.	4B\	-na	4B\	-na	4a,<\	-na,	4b\	-na	.	.
*	*	*	*	*	*	*	*	*	*	*Xij	*	*	*	*Xij	*	*
.	.	.	.	.	.	.	8D/	in	8D/	in	8d\	in	8d/	in	.	.
.	.	.	.	.	.	.	8D/	ex-	8D/	ex-	8d\	ex-	8d/	ex-	.	.
=116	=116	=116	=116	=116	=116	=116	=116	=116	=116	=116	=116	=116	=116	=116	=116	=116
2.G/	2.GG\	2.ryy	2.b/	2.d\	2.gg/	2.b\	2E\	-cel-	2E/	-cel-	2e\	-cel-	2e/	-cel-	2.g\	2.b\
.	.	.	.	.	.	.	4F#\	.	4F#/	.	4f#\	.	4f#/	.	.	.
=117	=117	=117	=117	=117	=117	=117	=117	=117	=117	=117	=117	=117	=117	=117	=117	=117
2.G/	2.GG\	2.ryy	2b/	2d\	2gg/	2b\	2.G\	.	2.G/	.	2.g\	.	2.g\	.	2g\	2b\
.	.	.	4d/	4d\yy	4dd\	4b\yy	.	.	.	.	.	.	.	.	4d/	4dd\
*	*	*	*v	*v	*	*	*	*	*	*	*	*	*	*	*	*
*	*	*	*	*v	*v	*	*	*	*	*	*	*	*	*	*
!	!	!	!	!	!	!	!	!	!	!	!	!	!LO:LB:g=original	!
=118	=118	=118	=118	=118	=118	=118	=118	=118	=118	=118	=118	=118	=118	=118
2.G/	2.GG\	2.ryy	4g/	4gg\	2.G\	.	2.d\	.	2.g\	.	2.b\	.	4g\	4b\
.	.	.	4g/	4gg\	.	.	.	.	.	.	.	.	4g\	4b\
.	.	.	4a/	4dd\	.	.	.	.	.	.	.	.	4a\	4cc\
=119	=119	=119	=119	=119	=119	=119	=119	=119	=119	=119	=119	=119	=119	=119
2.G/	2.GG\	2.ryy	4b/	4bb\	2.G\	.	2.d\	.	2.g\	.	2.b\	.	4b\	4dd\
.	.	.	4b/	4bb\	.	.	.	.	.	.	.	.	4b\	4dd\
.	.	.	4d/	4dd\	.	.	.	.	.	.	.	.	4g\	4b\
!	!	!	!	!	!	!	!	!	!	!	!	!	!	!LO:LB:g=original
=120	=120	=120	=120	=120	=120	=120	=120	=120	=120	=120	=120	=120	=120	=120
2.G/	2.GG\	2.ryy	4e/	4ee\	2.G\	.	2.d\	.	2.g\	.	2.b\	.	4a\	4cc\
.	.	.	4e/	4ee\	.	.	.	.	.	.	.	.	4a\	4cc\
.	.	.	4f#/	4ff#\	.	.	.	.	.	.	.	.	4d/	4a\
=121	=121	=121	=121	=121	=121	=121	=121	=121	=121	=121	=121	=121	=121	=121
!	!	!	!	!	!LO:TX:b:t=Agnus ùt Kyrie Primu(m) C\nDonanobis ùt Secundum 12\8.	!	!LO:TX:b:t=Agnus & Donano\nbis ùt Kyrie	!	!LO:TX:b:t=Agnus ùt Kyrie Primum C\nDonanobis ùt Kyrie\nSecundum 12\8.	!	!	!	!LO:TX:b:t=Agnus et Dona ut Kyrie.	!LO:TX:b:t=Agnus ut Kyrie Dona Allegro.
2.G/	2.GG\	2.ryy	2g;;/	2gg;;\	2.G\	-sis	2.d\	-sis	2.g\	-ſis.	2.b\	-sis	2.g;\	2.b\
!	!	!	!LO:TX:b:t=Agnus et Dona\nut Kyrie.	!LO:TX:b:t=Agnus et Dona nobis ut Kyrie.	!	!	!	!	!	!	!	!	!	!
.	.	.	4ryy	4ryy	.	.	.	.	.	.	.	.	.	.
=122	=122	=122	=122	=122	=122	=122	=122	=122	=122	=122	=122	=122	=122	=122
!LO:TX:t=P:problem=zbędne 4 takty	!LO:TX:t=P:problem=zbędne 4 takty	!LO:TX:t=P:problem=zbędne 4 takty w partii Organo	!LO:TX:t=P:problem=zbędne 4 takty w partii Organo	!LO:TX:t=P:problem=zbędne 4 takty w partii Organo	!LO:TX:t=P:problem=zbędne 4 takty w partii Organo	!	!LO:TX:t=P:problem=zbędne 4 takty w partii Organo	!	!LO:TX:t=P:problem=zbędne 4 takty w partii Organo	!	!LO:TX:t=P:problem=zbędne 4 takty w partii Organo	!	!LO:TX:t=P:problem=zbędne 4 takty w partii Organo	!LO:TX:t=P:problem=zbędne 4 takty w partii Organo
2.G/	2.GG\	2.ryy	2.ryy	2.ryy	2.ryy	.	2.ryy	.	2.ryy	.	2.ryy	.	2.ryy	2.ryy
=123	=123	=123	=123	=123	=123	=123	=123	=123	=123	=123	=123	=123	=123	=123
2.G/	2.GG\	2.ryy	2.ryy	2.ryy	2.ryy	.	2.ryy	.	2.ryy	.	2.ryy	.	2.ryy	2.ryy
=124	=124	=124	=124	=124	=124	=124	=124	=124	=124	=124	=124	=124	=124	=124
2.G/	2.GG\	2.ryy	2.ryy	2.ryy	2.ryy	.	2.ryy	.	2.ryy	.	2.ryy	.	2.ryy	2.ryy
=125	=125	=125	=125	=125	=125	=125	=125	=125	=125	=125	=125	=125	=125	=125
!LO:TX:b:t=Agnus Dei & Dona ut Kyrie	!	!	!	!	!	!	!	!	!	!	!	!	!	!
2.G/	2.GG\	2.ryy	2.ryy	2.ryy	2.ryy	.	2.ryy	.	2.ryy	.	2.ryy	.	2.ryy	2.ryy
*v	*v	*	*	*	*	*	*	*	*	*	*	*	*	*
==	==	==	==	==	==	==	==	==	==	==	==	==	==
*-	*-	*-	*-	*-	*-	*-	*-	*-	*-	*-	*-	*-	*-
!!!system-decoration: [(s1,s2)][(s3,s4,s5,s6)][(s7,s8,s9)](s10)
!!!RDF**kern: < = below
!!!RDF**kern: > = above
!!!ENC: Mateusz Solarz
!!!END: 2020-07-27
!!!ENC: Marta Chmielewska
!!!END: 2022-03-04
